X:1
T:Bang Up. G&D_1811.01
M:6/8
L:1/8
Q:3/8=120
C:"By permission from Parry's Lyrist No 3."
B:Goulding, D’Almaine & Potter 24 CDs, 1811
O:England
A:London
Z:Village Music Project, 1999, Chris Partington
W:Change sides,back again,down the middle,up again,right and left.
K:D
A|d2df2f|a2af2d|g2ef2d|cde ABc|
d2df2f|a2af2d|g2ef2d|cBAd2||
A|F2AE2A|F2Ad2c|B2dA2d|G2e cBA|
F2AE2A|F2Ad2c|Bcd ABc|d3-d2||
A|f2ed2c|B2AG2F|G2AB2e|dcBA2A|
f2e{e}d2c|{c}B2AG2F|G2AB2A|GFED2|]

